X: 684
T: Eviç Seyir
C: Rauf Yektâ
O: Turkey
F: http://compmusic.upf.edu/node/140
N: evic--seyir--semai--1--rauf_yekta
N: makam= evic
N: form= seyir
N: usul= semai = 3/4
M: 3/4
L: 1/16
K: C _1/4B ^f ^c 
Q: 1/4=120
%%MIDI tuningsystem comma53
f8 f4  | f8 g4  | f8 e4  | d8 z4  | e8 f4  | g4 a4 b4  | \
w:   |   |   |   |   |   | 
a8 g4  | f8 z4  | e8 f4  | g4 a8  | 
w:   |   |   |   | 
b4 a4 g4  | f4 e8  | z4 d4 e4  | f4 g8  | f8 e4  | \
w:   |   |   |   |   | 
d8 z4  | e4 d4 =c4  | B4 A8  | A8 e4  | 
w:   |   |   |   | 
d8 g4  | g4 f4 e4  | d4 =c4 B4  | A8 G4  | \
w:   |   |   |   | 
F8 z4  | F8 G4  | A8 B4  | d4 =c4 B4  | B4 A8  | 
w:   |   |   |   |   | 
A4 B4 =c4  | B4 A4 G4  | A4 G4 F4  | F8 z4  | |


